!!!OTL: 295. Goldene Bruecke.
!!!ARE: Europa, Mitteleuropa, Deutschland, Darmstadt
!!!SCT: K2295
!!!TXL: @@DE
!!!YEM: Copyright 1995, estate of Helmut Schaffrath.
**kern	**text
*clefG2	*
*M2/4	*
*k[f#c#]	*
*D:	*
{8d	Schluppt
=1	=1
8a	al-
8a	-le
8f#	durch,
8d	ſchluppt
=2	=2
8a	al-
8a	-le
8f#}	durch,
{8d	ſchluppt
=3	=3
8dd	durch
8cc#	die
8b	gold'-
8a	-ne
=4	=4
4a	Brü-
8f#}	-cke!
{8d	Sie
=5	=5
8a	iſt
8a	ent-
8f#	-ʒwei,
8d	ſie
=6	=6
8a	iſt
8a	ent-
8f#}	-ʒwei,
{8d	man
=7	=7
8dd	muß
8cc#	ſie
8b	wie-
8a	-der
=8	=8
4a	fli-
8f#}	-cke(n).
{8d	Mit
=9	=9
(4a	was,
8f#)	.
8d	mit
=10	=10
(4a	was?
8f#)}	.
{8d	mit
=11	=11
*	*^
8a	Ei-	(Steinelein)
8a	-ner-	.
8f#	-lei,	.
8d	mit	.
=12	=12	=12
8a	Ʒwei-	(Beinelein)
8a	-er-	.
8f#}	-lei,	.
*	*v	*v
{8d	der
=13	=13
8dd	Letʒ-
8cc#	-te
8b	muß
8a	be-
=14	=14
4a	-ʒah-
8f#}	-le(n).
==	==
!!!AGN: Kinder - Lied, Reigen, Tanz - Spiel
!!!ONB: ESAC (Essen Associative Code) Database: KINDER
!!!AMT: simple duple
!!!AIN: vox
!!!EED: Helmut Schaffrath
!!!EEV: 1.0
!!Aus Darmstadt: Foelfing Nr. 108.
!!!GTL: Zweites Buch. Kinderspiel: 2. Reigen und Tanzspiele. / H. Thorbilden, Durchkriegen und Ziehkampf..
!!!URL-scan: https://archive.org/details/DeutschesKinderliedUndKinderspiel/page/524/mode/1up
!!!ENC: Anna Maria Matuszewska
!!!EEV: 2024/05/09
*-	*-
